X:1
T:Title
%%score { ( 1 3 ) | ( 2 4 ) }
L:1/8
M:4/4
K:Bb
V:1 treble nm="Grand Piano"
V:3 treble 
V:2 bass 
V:4 bass 
V:1
 z4 z2[Q:1/4=106] [DF][CE] | [B,D]2 [DF]2 [DB]3 [Dc] | B2 A2 A2 G2 | F3 G F2 E2 |[M:3/4] D6 | %5
[M:1/4] [DF]2 |[M:4/4] [EG]2 [EA]2 [FB]2 c2 | d3 d d2 [Gd]2 | [Gd]3 [Gc] [=EG]2 [Ec]2 | %9
 c6[K:bass] z2 | [Fd]4 z4 | B8[K:bass] | [DG=B]2 [DGB][GB] [CGc]2 [Gd]2 |[M:3/4] [Ge]6[K:bass] | %14
[M:1/4][K:treble] =ee |[M:4/4] f2 e2 d2 [EAc][EAc] | [DGB]2 [C^FA]2 z2 e2 | d4 z4 | %18
[M:3/4] [DFB]6 |] %19
V:2
 z4 z2 [B,,F,]2 | [B,,F,]2 [B,,B,]2 [B,,F,]3 [B,,F,] | [F,E]2 [F,A,E]2 [F,CE]2 [F,B,E]2 | %3
 [F,A,E]3 [F,A,E] [F,B,D]2 [F,C]2 |[M:3/4] [B,,F,B,]6 |[M:1/4] [B,,B,]2 | %6
[M:4/4] [E,B,]2 [C,F,]2 [D,B,]2[K:treble] [F,A,F]2 | [B,F]3 [A,C^F] [G,B,G]2[K:bass] [F,B,]2 | %8
 [=E,B,]3 [E,B,] [C,B,]2 [C,B,]2 | [F,A,F]6 z2 | B,4 [A,F]2 [A,E]2 | [B,D]8 | %12
 G,,2 z D E,2 [D,=B,]2 |[M:3/4] C6 |[M:1/4][K:treble] [CG][B,CG] | %15
[M:4/4] [A,CF]2 [F,A,F]2 [B,F]2[K:bass] F,^F, | G,2 D,2 E,2 C,2 | [B,F]2 D2 F,2 F,2 | %18
[M:3/4] B,,6 |] %19
V:3
 x8 | x8 | x8 | x8 |[M:3/4] x6 |[M:1/4] x2 |[M:4/4] x8 | x8 | x8 | z2[K:bass] E,2 D,2 C,2 | %10
 z2 D,2 d2 c2 | z2[K:bass] F,2 D,2 B,,2 | x8 |[M:3/4] z2[K:bass] E,2 G,2 |[M:1/4][K:treble] x2 | %15
[M:4/4] x8 | z4 [B,G]4 | z2 B2 [FAd]2 [EFc]2 |[M:3/4] x6 |] %19
V:4
 x8 | x8 | x8 | x8 |[M:3/4] x6 |[M:1/4] x2 |[M:4/4] x6[K:treble] x2 | x6[K:bass] x2 | x8 | x8 | %10
 B,,2 z2 F,4 | x8 | z2 F,2 z4 |[M:3/4] C,2 z2 z2 |[M:1/4][K:treble] x2 |[M:4/4] x6[K:bass] x2 | %16
 x8 | F,4 z4 |[M:3/4] x6 |] %19

